X: 1
T: Bibonka's Reel
C: Paul Machlis
R: reel
Z: 2006 John Chambers <jc:trillian.mit.edu>
S: handwritten MS labelled "R26"
M: C|
L: 1/8
K: G
D2 | "G"G2BA    GABG | "Am"ABcd     e2ef |  "C"g2fe "D"dcBA |1 "Em"GABc "D7"A2 :|2 "G"G2g2 G2 ||
ef | "C"g2eg "D"fedc | "Bm"BcdB "Em"e2Bd | "A7"efge    agfe | "D"d2f2 d2 \
d2 | "C"e2ce "D"dcBA | "Em"GABc "Bm"d2ef |  "C"g2fe "D"dcBA | "G"G2B2 G2 |]
